public/assets/images/icons/tablet/secured-authentication.svg

<svg width="100" height="100" viewBox="0 0 100 100" fill="none" xmlns="http://www.w3.org/2000/svg">
<mask id="mask0_4411_12052" style="mask-type:alpha" maskUnits="userSpaceOnUse" x="0" y="0" width="100" height="100">
<rect width="100" height="100" fill="white"/>
</mask>
<g mask="url(#mask0_4411_12052)">
<path d="M9.00107 20.6638C9.57051 42.0829 18.1266 83.2436 48.901 94.802C49.604 95.066 50.396 95.066 51.099 94.802C81.8734 83.2436 90.4295 42.0829 90.9989 20.6638C91.0354 19.2938 90.1348 18.0824 88.8043 17.6428L51.051 5.16892C50.3694 4.94369 49.6306 4.94369 48.949 5.16892L11.1957 17.6428C9.86522 18.0824 8.96464 19.2938 9.00107 20.6638Z" fill="white"/>
<path d="M36 51.5833L47.0212 61.3243C47.4409 61.6952 48.0835 61.6491 48.4459 61.222L69 37" stroke="#241E35" stroke-width="10" stroke-linecap="round"/>
</g>
</svg>

<svg width="100" height="100" fill="none" xmlns="http://www.w3.org/2000/svg"><mask id="a" style="mask-type:alpha" maskUnits="userSpaceOnUse" x="0" y="0" width="100" height="100"><path fill="#fff" d="M0 0h100v100H0z"/></mask><g mask="url(#a)"><path d="M9.001 20.664c.57 21.419 9.126 62.58 39.9 74.138a3.149 3.149 0 002.198 0c30.774-11.558 39.33-52.72 39.9-74.138.036-1.37-.864-2.582-2.195-3.021L51.051 5.169a3.354 3.354 0 00-2.102 0L11.196 17.643c-1.33.44-2.231 1.65-2.195 3.02z" fill="#fff"/><path d="M36 51.583l11.021 9.741a1 1 0 001.425-.102L69 37" stroke="#241E35" stroke-width="10" stroke-linecap="round"/></g></svg>
